X:1410
T:French Canadian Reel
D:Chris Wood & Andy Cutting,  (199)
Z:Nigel Gatherer <gatherer@argonet.co.uk>
M:4/4
L:1/8
K:D
A|D2 FA dfed|B2 GB AGFE|D2 FA dfed|Aceg fd d2|
D2 FA dfed|B2 GB AGFE|D2 FA dfed|Aceg fd d:|
A|defd A2 Af|gfge cABc|defd A2 Af|gfge cABc|
defd A2 Af|gAfA e2 ef|gefd ecdF|GBAF GF E2|afge fdec|
dAFA B2 ge|fdeg fedF|GBAF GF E2|afge fdec|Aceg fd d2|]
